dist/upp/assets/img/submenu-5.svg

<svg width="32" height="32" viewBox="0 0 32 32" fill="none" xmlns="http://www.w3.org/2000/svg">
<g id="Business ready websites">
<g id="B226__x2C_Data__x2C_Network__x2C_Secure__x2C_Security_1_">
<g id="Group">
<path id="Vector" d="M23.0891 15.2026C22.297 15.2026 21.6633 15.825 21.6633 16.603C21.6633 17.3809 22.297 18.0033 23.0891 18.0033C23.8812 18.0033 24.5148 17.3809 24.5148 16.603C24.5544 15.825 23.9208 15.2026 23.0891 15.2026ZM23.0891 17.0697C22.8514 17.0697 22.6534 16.8752 22.6534 16.6419C22.6534 16.4085 22.8514 16.214 23.0891 16.214C23.3267 16.214 23.5247 16.4085 23.5247 16.6419C23.6039 16.8752 23.4059 17.0697 23.0891 17.0697Z" fill="#090909"/>
<path id="Vector_2" d="M23.0891 26.016C23.8812 26.016 24.5148 25.3936 24.5148 24.6157C24.5148 23.8377 23.8812 23.2153 23.0891 23.2153C22.297 23.2153 21.6633 23.8377 21.6633 24.6157C21.6633 25.3547 22.297 26.016 23.0891 26.016ZM23.0891 24.1489C23.3267 24.1489 23.5247 24.3434 23.5247 24.5768C23.5247 24.8101 23.3267 25.0046 23.0891 25.0046C22.8514 25.0046 22.6534 24.8101 22.6534 24.5768C22.6534 24.3434 22.8514 24.1489 23.0891 24.1489Z" fill="#090909"/>
<path id="Vector_3" d="M28 5.28364C28 4.97246 27.7228 4.77797 27.4455 4.81687C26.1386 5.01136 24.6733 4.97246 23.6832 4.11671C23.5248 3.96112 23.2871 3.96112 23.0891 4.07781C21.9406 4.81687 20.6337 5.05026 19.2871 4.81687C18.9307 4.77797 18.6535 4.97246 18.6535 5.28364V5.32254H4.51485C4.23762 5.32254 4 5.59483 4 5.86711V11.7407C4 12.013 4.23762 12.2464 4.51485 12.2464H13.5446V13.3355H4.51485C4.23762 13.3355 4 13.5689 4 13.8412V19.4425C4 19.7537 4.23762 19.9481 4.51485 19.9481H13.5446V21.3096H4.51485C4.23762 21.3096 4 21.543 4 21.8152V27.4554C4 27.7277 4.23762 27.9611 4.51485 27.9611H25.9802C26.2574 27.9611 26.4951 27.7277 26.4951 27.4554V21.7764C26.4951 21.5041 26.2574 21.2707 25.9802 21.2707H16.3168V19.9093H25.9802C26.2574 19.9093 26.4951 19.7148 26.4951 19.4425V13.8023C26.4951 13.53 26.2574 13.2966 25.9802 13.2966H25.9406C27.0099 12.2075 27.5248 11.5851 27.7624 10.4182C28.0396 9.36792 28 8.0065 28 5.28364ZM19.7228 12.2075C19.9604 12.5576 20.2772 12.8687 20.6733 13.2966H16.2772V12.2075H19.7228ZM4.9901 6.33389H18.6535C18.6535 8.78445 18.6535 10.1459 19.0891 11.235H4.9901V6.33389ZM14.5347 12.2075H15.2871V13.2966H14.5347V12.2075ZM25.505 26.9498H4.9901V22.282H25.505V26.9498ZM15.3267 21.2707H14.5743V19.9093H15.3267V21.2707ZM25.505 18.9368H4.9901V14.308H13.901C13.9802 14.3469 14.099 14.3469 14.1782 14.308H15.604C15.6832 14.3469 15.802 14.3469 15.8812 14.308H21.5842C21.6634 14.3858 21.7426 14.4635 21.8218 14.5413C21.901 14.6191 22.0594 14.6969 22.1782 14.6969H24.3564C24.4753 14.6969 24.6337 14.658 24.7129 14.5413C24.7921 14.4635 24.8713 14.3858 24.9505 14.308H25.4257V18.9368H25.505ZM26.8119 10.2237C26.5743 11.3128 25.9802 11.8185 24.4356 13.4133C24.3564 13.4911 24.2772 13.5689 24.1584 13.6856H22.4554C22.3366 13.5689 22.2574 13.4522 22.1782 13.3744C21.5446 12.752 20.8713 12.0908 20.4752 11.5462C20.4356 11.4684 20.396 11.4295 20.3564 11.3906C20.1188 11.0405 20 10.7293 19.8812 10.2626C19.6832 9.32903 19.7228 7.69531 19.7228 5.90601C21.0297 6.0227 22.2574 5.78932 23.3663 5.12805C24.4356 5.86711 25.7822 5.98381 27.0495 5.86711C26.9703 7.9676 27.0099 9.32903 26.8119 10.2237Z" fill="#090909"/>
</g>
</g>
</g>
</svg>

<svg width="32" height="32" fill="none" xmlns="http://www.w3.org/2000/svg"><g id="Business ready websites"><g id="B226__x2C_Data__x2C_Network__x2C_Secure__x2C_Security_1_"><g id="Group" fill="#090909"><path id="Vector" d="M23.09 15.203c-.793 0-1.427.622-1.427 1.4 0 .778.634 1.4 1.426 1.4.792 0 1.426-.622 1.426-1.4.04-.778-.594-1.4-1.426-1.4zm0 1.867a.436.436 0 01-.437-.428.436.436 0 01.872 0c.079.233-.12.428-.436.428z"/><path id="Vector_2" d="M23.09 26.016c.791 0 1.425-.622 1.425-1.4 0-.778-.634-1.4-1.426-1.4-.792 0-1.426.622-1.426 1.4 0 .739.634 1.4 1.426 1.4zm0-1.867c.237 0 .435.194.435.428a.436.436 0 01-.872 0c0-.234.198-.428.436-.428z"/><path id="Vector_3" d="M28 5.284c0-.312-.277-.506-.555-.467-1.306.194-2.772.155-3.762-.7-.158-.156-.396-.156-.594-.04-1.148.74-2.455.973-3.802.74-.356-.039-.633.155-.633.467v.039H4.514c-.276 0-.514.272-.514.544v5.874a.52.52 0 00.515.505h9.03v1.09h-9.03A.52.52 0 004 13.84v5.601c0 .312.238.506.515.506h9.03v1.362h-9.03a.52.52 0 00-.515.505v5.64a.52.52 0 00.515.506H25.98a.52.52 0 00.515-.506v-5.679a.52.52 0 00-.515-.505h-9.663v-1.362h9.663c.277 0 .515-.194.515-.466v-5.64a.52.52 0 00-.515-.506h-.04c1.07-1.09 1.585-1.712 1.822-2.879.278-1.05.238-2.411.238-5.134zm-8.277 6.923c.237.35.554.662.95 1.09h-4.396v-1.09h3.446zM4.99 6.334h13.664c0 2.45 0 3.812.435 4.901H4.99V6.334zm9.545 5.873h.752v1.09h-.752v-1.09zm10.97 14.743H4.99v-4.668h20.515v4.668zm-10.178-5.68h-.753v-1.36h.753v1.36zm10.178-2.333H4.99v-4.629h8.911c.08.039.198.039.277 0h1.426c.08.039.198.039.277 0h5.703l.238.233a.592.592 0 00.356.156h2.178c.12 0 .278-.039.357-.156l.238-.233h.475v4.629h.079zm1.307-8.713c-.238 1.089-.832 1.595-2.376 3.19l-.278.272h-1.703c-.118-.117-.198-.234-.277-.312-.633-.622-1.307-1.283-1.703-1.828-.04-.078-.079-.116-.119-.155-.237-.35-.356-.662-.475-1.128-.198-.934-.158-2.568-.158-4.357 1.307.117 2.534-.117 3.643-.778 1.07.74 2.416.856 3.683.74-.079 2.1-.04 3.461-.237 4.356z"/></g></g></g></svg>
